Numix-GalliumOS/32/mimetypes/text-x-dsrc.svg

<?xml version="1.0" encoding="UTF-8" standalone="no"?>
<svg
   xmlns:dc="http://purl.org/dc/elements/1.1/"
   xmlns:cc="http://creativecommons.org/ns#"
   xmlns:rdf="http://www.w3.org/1999/02/22-rdf-syntax-ns#"
   xmlns:svg="http://www.w3.org/2000/svg"
   xmlns="http://www.w3.org/2000/svg"
   xmlns:sodipodi="http://sodipodi.sourceforge.net/DTD/sodipodi-0.dtd"
   xmlns:inkscape="http://www.inkscape.org/namespaces/inkscape"
   width="32"
   height="32"
   viewBox="0 0 32 32"
   id="svg2"
   version="1.1"
   inkscape:version="0.91 r13725"
   sodipodi:docname="text-x-dsrc1.svg">
  <metadata
     id="metadata30">
    <rdf:RDF>
      <cc:Work
         rdf:about="">
        <dc:format>image/svg+xml</dc:format>
        <dc:type
           rdf:resource="http://purl.org/dc/dcmitype/StillImage" />
        <dc:title></dc:title>
      </cc:Work>
    </rdf:RDF>
  </metadata>
  <defs
     id="defs28" />
  <sodipodi:namedview
     pagecolor="#ffffff"
     bordercolor="#666666"
     borderopacity="1"
     objecttolerance="10"
     gridtolerance="10"
     guidetolerance="10"
     inkscape:pageopacity="0"
     inkscape:pageshadow="2"
     inkscape:window-width="1366"
     inkscape:window-height="713"
     id="namedview26"
     showgrid="true"
     inkscape:zoom="22.627417"
     inkscape:cx="10.98649"
     inkscape:cy="14.890161"
     inkscape:window-x="0"
     inkscape:window-y="28"
     inkscape:window-maximized="1"
     inkscape:current-layer="svg2">
    <inkscape:grid
       type="xygrid"
       id="grid3060" />
  </sodipodi:namedview>
  <path
     style="fill:#2d2d2d;fill-opacity:1"
     d="M 5.335888,2.97e-4 C 4.648414,3.12e-4 4,0.676788 4,1.394031 L 4,30.606268 C 4,31.282757 4.687474,32 5.335888,32 l 21.327333,0 c 0.648413,0 1.335888,-0.717243 1.335888,-1.393732 L 28.000001,8.9999996 19.000001,0 z"
     id="path4-1"
     inkscape:connector-curvature="0"
     sodipodi:nodetypes="ssssssccs" />
  <path
     style="fill:#000000;fill-opacity:0.19599998"
     d="M 21,8.9999996 28,16 28,8.9999996 z"
     id="path6-4"
     inkscape:connector-curvature="0"
     sodipodi:nodetypes="cccc" />
  <path
     style="fill:#ffffff;fill-opacity:0.39200003"
     d="m 19.000306,2.97e-4 8.991594,8.9997026 -7.613262,0 c -0.67295,0 -1.378332,-0.7134896 -1.378332,-1.3864402 z"
     id="path8-6"
     inkscape:connector-curvature="0"
     sodipodi:nodetypes="ccssc" />
  <path
     d="M 22,18.5 C 22,23.831456 18.602251,26 15.999998,26 L 10,26 10,11 15.999999,11 C 18.602251,11 22,13.168544 22,18.5 Z m -3,0 c 0,-3 -1.500001,-4.499999 -4.000001,-4.499999 L 13,14.000001 13,23 14.999999,23 C 17.499999,23 19,21.5 19,18.5 Z"
     style="font-style:normal;font-variant:normal;font-weight:bold;font-stretch:normal;font-size:12.30313683px;line-height:125%;font-family:'Open Sans';-inkscape-font-specification:'Open Sans Bold';letter-spacing:0px;word-spacing:0px;fill:#dcdcdc;fill-opacity:1;stroke:none;stroke-width:1px;stroke-linecap:butt;stroke-linejoin:miter;stroke-opacity:1"
     id="path4161"
     inkscape:connector-curvature="0"
     sodipodi:nodetypes="zcccczzsccsz" />
</svg>

<svg xmlns="http://www.w3.org/2000/svg" viewBox="0 0 32 32">
 <path d="m 5.336 0 c -0.687 0 -1.336 0.676 -1.336 1.394 l 0 29.21 c 0 0.676 0.687 1.394 1.336 1.394 l 21.327 0 c 0.648 0 1.336 -0.717 1.336 -1.394 l 0.001 -21.606 -9 -9 z" style="fill:#2d2d2d;fill-opacity:1"/>
 <path d="m 21 9 7 7 0 -7 z" style="fill:#000;fill-opacity:0.196"/>
 <path d="m 19 0 8.992 9 -7.613 0 c -0.673 0 -1.378 -0.713 -1.378 -1.386 z" style="fill:#fff;fill-opacity:0.392"/>
 <path d="m 22 18.5 c 0 5.331 -3.398 7.5 -6 7.5 l -6 0 0 -15 6 0 c 2.602 0 6 2.169 6 7.5 m -3 0 c 0 -3 -1.5 -4.5 -4 -4.5 l -2 0 0 9 2 0 c 2.5 0 4 -1.5 4 -4.5" style="fill:#dcdcdc;fill-opacity:1;stroke:none"/>
</svg>
